X: 34593
T: Rivals, The
R: jig
M: 6/8
K: Amajor
a/f/|ecA ABA|ccc Aaf|ecA ABA|dB=G GBd|
cBA ABA|ecA Ace|f{/a}f{/e}f edc|dBG G2:|
c/B/|Aaa aea|cBA ABA|=Ggf g{/a}g{/f}g|dB=G GcB|
Aaa aea|fga ef=g|fed edc|dBG A2:|
d/B/|Aaa e2 a|cBA AcB|Aaa ef=g|dB=G GcB|
Aaa ef=g|fga ef=g|f{/a}f{/e}f edc|dBG A2:|

